; generated by PrusaSlicer 2.7.4+win64 on 2024-05-29 at 10:31:56 UTC

; 

; external perimeters extrusion width = 0.42mm
; perimeters extrusion width = 0.44mm
; infill extrusion width = 0.44mm
; solid infill extrusion width = 0.44mm
; top infill extrusion width = 0.40mm
; support material extrusion width = 0.36mm
; first layer extrusion width = 0.42mm

M201 X500 Y500 Z100 E5000 ; sets maximum accelerations, mm/sec^2
M203 X500 Y500 Z10 E60 ; sets maximum feedrates, mm / sec
M204 S500 T1000 ; sets acceleration (S) and retract acceleration (R), mm/sec^2
M205 X8.00 Y8.00 Z0.40 E5.00 ; sets the jerk limits, mm/sec
M205 S0 T0 ; sets the minimum extruding and travel feed rate, mm/sec

; printing object shortendoscopykutusu.stl id:0 copy 0
; stop printing object shortendoscopykutusu.stl id:0 copy 0

;TYPE:Custom
G90 ; use absolute coordinates
M83 ; extruder relative mode
M104 S150 ; set temporary nozzle temp to prevent oozing during homing
M140 S70 ; set final bed temp
G4 S30 ; allow partial nozzle warmup
G28 ; home all axis and restore leveling
G1 Z50 F240
G1 X2.0 Y10 F3000
M104 S220 ; set final nozzle temp
M190 S70 ; wait for bed temp to stabilize
M109 S220 ; wait for nozzle temp to stabilize
G1 Z0.28 F240
G92 E0
G1 X2.0 Y140 E10 F1500 ; prime the nozzle
G1 X2.3 Y140 F5000
G92 E0
G1 X2.3 Y10 E10 F1200 ; prime the nozzle
G92 E0
G21 ; set units to millimeters
G90 ; use absolute coordinates
M83 ; use relative distances for extrusion
; Filament gcode
M107
;LAYER_CHANGE
;Z:0.4
;HEIGHT:0.4
G1 E-2 F2400
G1 Z.9 F9000
G1 X45.683 Y70.402
G1 Z.4
G1 E2 F2400
M204 S500
;TYPE:Skirt/Brim
;WIDTH:0.42
G1 F1200
G1 X47.071 Y69.566 E.09004
G1 X48.045 Y69.421 E.05472
G1 X170.204 Y70.096 E6.78859
G1 X171.064 Y70.214 E.04824
G1 X172.516 Y70.699 E.08507
G1 X173.968 Y71.526 E.09286
G1 X175.148 Y72.546 E.08668
G1 X176.407 Y74.251 E.11778
G1 X176.851 Y75.135 E.05497
G1 X177.268 Y76.41 E.07455
G1 X177.483 Y77.799 E.07811
G1 X177.941 Y85.545 E.4312
G1 X177.941 Y195.545 E6.1128
G1 X177.401 Y206.691 E.62012
G1 X176.931 Y208.242 E.09006
G1 X176.266 Y209.038 E.05764
G1 X174.95 Y210.189 E.09716
G1 X173.872 Y210.905 E.07192
G1 X172.362 Y211.498 E.09015
G1 X171.309 Y211.669 E.05928
G1 X47.929 Y211.669 E6.85634
G1 X46.929 Y211.515 E.05623
G1 X45.43 Y210.951 E.089
G1 X44.264 Y210.19 E.07737
G1 X43.034 Y209.017 E.09445
G1 X42.294 Y208.045 E.06789
G1 X41.613 Y206.132 E.11284
G1 X41.273 Y195.545 E.58863
G1 X41.297 Y85.143 E6.13514
G1 X42.585 Y74.52 E.59465
G1 X43.52 Y72.582 E.11958
G1 X45.641 Y70.445 E.16732
G1 E-2 F2400
G1 X45.641 Y70.445 Z.9 F9000
; printing object shortendoscopykutusu.stl id:0 copy 0
G1 X52.42 Y200.537
G1 Z.4
G1 E2 F2400
;TYPE:Support material
G1 F1200
G1 X53.266 Y201.383 E.06649
G1 X54.272 Y203.106 E.11087
G1 X54.272 Y206.025 E.16221
G1 X53.671 Y206.626 E.04723
G1 X53.537 Y206.98 E.02103
G1 X52.755 Y207.679 E.05829
G1 X52.132 Y208.061 E.04061
G1 X51.31 Y208.335 E.04815
G1 X47.929 Y208.335 E.18789
G1 X47.131 Y208.084 E.04649
G1 X46.475 Y207.694 E.04241
G1 X45.686 Y206.995 E.05858
G1 X45.546 Y206.63 E.02172
G1 X44.945 Y206.024 E.04743
G1 X44.941 Y203.114 E.16171
G1 X45.774 Y201.56 E.09798
G1 X46.79 Y200.539 E.08004
G1 X48.306 Y199.911 E.09119
G1 X50.908 Y199.911 E.1446
G1 X52.374 Y200.518 E.08817
G1 X52.374 Y200.518 F9000
G1 X53.914 Y206.171
G1 F1200
G1 X53.914 Y203.072 E.17221
G1 X53.543 Y202.364 E.04442
G1 X53.543 Y206.329 E.22034
G1 X53.171 Y206.896 E.03768
G1 X53.171 Y201.797 E.28336
G1 X52.8 Y201.342 E.03262
G1 X52.8 Y207.213 E.32626
G1 X52.429 Y207.526 E.02697
G1 X52.429 Y200.971 E.36427
G1 X52.057 Y200.712 E.02519
G1 X52.057 Y207.754 E.39133
G1 X51.686 Y207.892 E.022
G1 X51.686 Y200.559 E.4075
G1 X51.315 Y200.405 E.02232
G1 X51.315 Y208.016 E.42295
G1 X50.944 Y208.034 E.02064
G1 X50.944 Y200.251 E.43251
G1 X50.572 Y200.212 E.02079
G1 X50.572 Y208.034 E.43468
G1 X50.201 Y208.034 E.02062
G1 X50.201 Y200.212 E.43468
G1 X49.83 Y200.212 E.02062
G1 X49.83 Y208.034 E.43468
G1 X49.458 Y208.034 E.02067
G1 X49.458 Y200.212 E.43468
G1 X49.087 Y200.212 E.02062
G1 X49.087 Y208.034 E.43468
G1 X48.716 Y208.034 E.02062
G1 X48.716 Y200.212 E.43468
G1 X48.365 Y200.212 E.01951
G1 X48.345 Y208.034 E.43468
G1 X47.973 Y208.033 E.02067
G1 X47.973 Y200.374 E.42562
G1 X47.602 Y200.528 E.02232
G1 X47.602 Y207.917 E.41061
G1 X47.231 Y207.793 E.02174
G1 X47.231 Y200.682 E.39516
G1 X46.859 Y200.896 E.02385
G1 X46.859 Y207.573 E.37105
G1 X46.488 Y207.283 E.02617
G1 X46.488 Y201.269 E.3342
G1 X46.117 Y201.642 E.02924
G1 X46.117 Y206.965 E.2958
G1 X45.939 Y206.815 E.01294
G1 X45.746 Y206.404 E.02523
G1 X45.746 Y202.22 E.23251
G1 X45.374 Y202.934 E.04474
G1 X45.374 Y206.243 E.18388
G1 E-2 F2400
G1 X45.374 Y206.243 Z.9 F9000
G1 X170.906 Y200.169
G1 Z.4
G1 E2 F2400
G1 F1200
G1 X171.691 Y200.536 E.04816
G1 X172.882 Y201.369 E.08077
G1 X173.569 Y202.309 E.0647
G1 X173.959 Y203.223 E.05522
G1 X173.96 Y205.069 E.10258
G1 X174.071 Y206.528 E.08131
G1 X172.755 Y207.679 E.09716
G1 X172.131 Y208.061 E.04066
G1 X171.309 Y208.335 E.04815
G1 X166.802 Y208.335 E.25046
G1 X165.367 Y206.901 E.11274
G1 X165.098 Y206.251 E.03909
G1 X164.63 Y205.548 E.04693
G1 X164.629 Y203.669 E.10442
G1 X165.312 Y202.051 E.0976
G1 X166.7 Y200.756 E.10549
G1 X167.439 Y200.362 E.04654
G1 X168.866 Y199.911 E.08317
G1 X170.48 Y199.911 E.08969
G1 X170.863 Y200.143 E.02488
G1 X170.863 Y200.143 F9000
G1 X173.469 Y206.843
G1 F1200
G1 X173.469 Y202.84 E.22245
G1 X173.31 Y202.468 E.02248
G1 X173.097 Y202.212 E.01851
G1 X173.097 Y206.961 E.26391
G1 X172.726 Y207.284 E.02734
G1 X172.726 Y201.674 E.31175
G1 X172.355 Y201.367 E.02676
G1 X172.355 Y207.572 E.34482
G1 X171.983 Y207.793 E.02405
G1 X171.984 Y201.107 E.37155
G1 X171.612 Y200.848 E.02519
G1 X171.612 Y207.917 E.39283
G1 X171.241 Y208.034 E.02162
G1 X171.241 Y200.637 E.41106
G1 X170.87 Y200.468 E.02266
G1 X170.87 Y208.034 E.42045
G1 X170.498 Y208.034 E.02067
G1 X170.498 Y200.274 E.43123
G1 X170.127 Y200.212 E.0209
G1 X170.127 Y208.034 E.43468
G1 X169.756 Y208.034 E.02062
G1 X169.756 Y200.212 E.43468
G1 X169.384 Y200.212 E.02067
G1 X169.384 Y208.034 E.43468
G1 X169.013 Y208.034 E.02062
G1 X169.013 Y200.212 E.43468
G1 X168.642 Y200.297 E.02115
G1 X168.642 Y208.034 E.42995
G1 X168.271 Y208.034 E.02062
G1 X168.271 Y200.417 E.42328
G1 X167.899 Y200.541 E.02179
G1 X167.899 Y208.034 E.41639
G1 X167.528 Y208.034 E.02062
G1 X167.528 Y200.664 E.40956
G1 X167.157 Y200.892 E.0242
G1 X167.157 Y208.034 E.39689
G1 X166.926 Y208.034 E.01284
G1 X166.785 Y207.893 E.01108
G1 X166.785 Y201.096 E.37772
G1 X166.414 Y201.445 E.02831
G1 X166.414 Y207.522 E.3377
G1 X166.043 Y207.151 E.02916
G1 X166.043 Y201.745 E.30042
G1 X165.672 Y202.116 E.02916
G1 X165.672 Y206.78 E.25918
G1 X165.3 Y206.012 E.04742
G1 X165.3 Y202.465 E.19711
G1 E-2 F2400
G1 X165.3 Y202.465 Z.9 F9000
G1 X170.185 Y73.43
G1 Z.4
G1 E2 F2400
G1 F1200
G1 X170.476 Y73.63 E.01962
G1 X170.938 Y73.636 E.02568
G1 X171.948 Y74.178 E.0637
G1 X172.551 Y74.638 E.04215
G1 X173.682 Y76.173 E.10596
G1 X174.1 Y77.448 E.07456
G1 X174.155 Y77.999 E.03077
G1 X173.994 Y79.827 E.10198
G1 X173.465 Y80.358 E.04165
G1 X173.301 Y80.748 E.02351
G1 X172.96 Y81.008 E.02383
G1 X172.61 Y81.593 E.03788
G1 X171.006 Y82.135 E.09409
G1 X170.021 Y82.145 E.05474
G1 X169.259 Y83.137 E.06951
G1 X166.416 Y81.854 E.17333
G1 X165.841 Y81.204 E.04823
G1 X165.448 Y80.902 E.02754
G1 X164.668 Y79.345 E.09677
G1 X164.49 Y78.559 E.04478
G1 X164.501 Y77.272 E.07152
G1 X164.657 Y76.573 E.0398
G1 X165.37 Y75.37 E.07771
G1 X166.03 Y74.647 E.0544
G1 X166.612 Y74.203 E.04068
G1 X167.534 Y73.639 E.06006
G1 X168.196 Y73.633 E.03679
G1 X168.832 Y73.43 E.0371
G1 X170.135 Y73.43 E.07241
G1 X170.135 Y73.43 F9000
G1 X173.84 Y79.769
G1 F1200
G1 X173.796 Y77.487 E.12684
G1 X173.469 Y76.487 E.05847
G1 X173.469 Y79.928 E.19122
G1 X173.21 Y80.187 E.02035
G1 X173.097 Y80.456 E.01621
G1 X173.097 Y75.884 E.25407
G1 X172.726 Y75.34 E.03659
G1 X172.726 Y80.812 E.30408
G1 X172.355 Y81.361 E.03682
G1 X172.355 Y74.878 E.36027
G1 X171.984 Y74.601 E.02573
G1 X171.984 Y81.487 E.38266
G1 X171.612 Y81.612 E.02181
G1 X171.612 Y74.339 E.40417
G1 X171.241 Y74.14 E.0234
G1 X171.241 Y81.738 E.42223
G1 X170.87 Y81.835 E.02131
G1 X170.87 Y73.941 E.43868
G1 X170.498 Y73.931 E.02068
G1 X170.498 Y81.839 E.43945
G1 X170.127 Y81.843 E.02062
G1 X170.127 Y73.755 E.44946
G1 X169.756 Y73.731 E.02066
G1 X169.756 Y81.996 E.45929
G1 X169.384 Y82.48 E.03392
G1 X169.384 Y73.731 E.48619
G1 X169.013 Y73.731 E.02062
G1 X169.013 Y82.697 E.49825
G1 X168.642 Y82.529 E.02263
G1 X168.642 Y73.807 E.48469
G1 X168.271 Y73.925 E.02163
G1 X168.271 Y82.362 E.46885
G1 X167.899 Y82.195 E.02266
G1 X167.899 Y73.937 E.4589
G1 X167.528 Y73.998 E.02089
G1 X167.528 Y82.027 E.44618
G1 X167.157 Y81.86 E.02261
G1 X167.157 Y74.232 E.42389
G1 X166.785 Y74.451 E.02399
G1 X166.785 Y81.691 E.40233
G1 X166.414 Y81.398 E.02627
G1 X166.414 Y74.743 E.36982
G1 X166.043 Y75.138 E.03011
G1 X166.043 Y80.98 E.32465
G1 X165.672 Y80.677 E.02662
G1 X165.672 Y75.505 E.28741
G1 X165.3 Y76.017 E.03517
G1 X165.3 Y79.936 E.21778
G1 X164.929 Y79.083 E.05169
G1 X164.929 Y76.397 E.14926
G1 E-2 F2400
G1 Z.9 F9000
G1 X53.262 Y73.385
G1 Z.4
G1 E2 F2400
G1 F1200
G1 X54.266 Y74.088 E.06811
G1 X55.21 Y75.899 E.11349
G1 X55.28 Y77.127 E.06835
G1 X55.242 Y78.117 E.05506
G1 X54.722 Y79.216 E.06756
G1 X54.01 Y80.256 E.07004
G1 X52.087 Y81.365 E.12336
G1 X51.457 Y81.409 E.03509
G1 X50.183 Y82.012 E.07833
G1 X49.116 Y81.403 E.06827
G1 X48.936 Y81.379 E.01009
G1 X47.716 Y80.754 E.07618
G1 X45.887 Y78.798 E.14881
G1 X45.839 Y76.287 E.13956
G1 X45.895 Y74.922 E.07592
G1 X48.045 Y72.755 E.16964
G1 X52.361 Y72.755 E.23984
G1 X53.221 Y73.356 E.0583
G1 X53.221 Y73.356 F9000
G1 X54.657 Y79.003
G1 F1200
G1 X54.657 Y75.488 E.19533
G1 X54.285 Y74.776 E.04464
G1 X54.285 Y79.311 E.25201
G1 X53.914 Y79.851 E.03641
G1 X53.914 Y74.208 E.31359
G1 X53.543 Y73.949 E.02514
G1 X53.543 Y80.178 E.34615
G1 X53.171 Y80.392 E.02385
G1 X53.171 Y73.689 E.37249
G1 X52.8 Y73.429 E.02518
G1 X52.8 Y80.606 E.39883
G1 X52.429 Y80.821 E.02383
G1 X52.429 Y73.169 E.42523
G1 X52.267 Y73.055 E.01101
G1 X52.057 Y73.055 E.01167
G1 X52.057 Y81.035 E.44346
G1 X51.686 Y81.091 E.02085
G1 X51.686 Y73.055 E.44657
G1 X51.315 Y73.056 E.02062
G1 X51.315 Y81.143 E.4494
G1 X50.944 Y81.319 E.02282
G1 X50.944 Y73.056 E.45918
G1 X50.572 Y73.056 E.02067
G1 X50.572 Y81.494 E.46891
G1 X50.201 Y81.67 E.02282
G1 X50.201 Y73.056 E.47869
G1 X49.83 Y73.056 E.02062
G1 X49.83 Y81.464 E.46724
G1 X49.458 Y81.253 E.02377
G1 X49.458 Y73.056 E.45551
G1 X49.087 Y73.056 E.02062
G1 X49.087 Y81.096 E.44679
G1 X48.716 Y80.932 E.02254
G1 X48.716 Y73.056 E.43768
G1 X48.345 Y73.056 E.02062
G1 X48.345 Y80.727 E.42628
G1 X47.973 Y80.535 E.02326
G1 X47.973 Y73.254 E.40461
G1 X47.602 Y73.628 E.02927
G1 X47.602 Y80.215 E.36605
G1 X47.231 Y79.845 E.02912
G1 X47.231 Y74.001 E.32476
G1 X46.859 Y74.372 E.0292
G1 X46.859 Y79.35 E.27663
G1 X46.488 Y78.976 E.02927
G1 X46.488 Y74.537 E.24668
G1 E-2 F2400
G1 X46.488 Y74.537 Z.9 F9000
G1 X45.585 Y86.523
G1 Z.4
G1 E2 F2400
;TYPE:Perimeter
;WIDTH:0.42
G1 F1200
G1 X173.629 Y86.523 E7.11552
G1 X173.629 Y101.811 E.84957
G1 X173.629 Y194.566 E5.15448
G1 X45.585 Y194.566 E7.11552
G1 X45.585 Y86.583 E6.00071
G1 X45.585 Y86.583 F9000
G1 X45.251 Y86.189
G1 F1200
G1 X173.963 Y86.189 E7.15264
G1 X173.963 Y101.811 E.86813
G1 X173.963 Y194.901 E5.17309
G1 X45.251 Y194.901 E7.15264
G1 X45.251 Y86.249 E6.03789
G1 X45.251 Y86.249 F9000
G1 X44.917 Y85.855
;TYPE:External perimeter
G1 F1200
G1 X174.297 Y85.855 E7.18976
G1 X174.297 Y101.811 E.88669
G1 X174.297 Y195.235 E5.19165
G1 X44.917 Y195.235 E7.18976
G1 X44.917 Y85.915 E6.07501
G1 X45.313 Y85.855 F9000
G1 E-2 F2400
G1 Z.9 F9000
G1 X73.649 Y139.241
G1 Z.4
G1 E2 F2400
;TYPE:Perimeter
G1 F1200
G1 X73.629 Y139.129 E.00632
G1 X73.629 Y110.486 E1.59172
G1 X73.701 Y110.146 E.01931
G1 X73.873 Y109.895 E.01691
G1 X83.957 Y99.811 E.79249
G1 X84.216 Y99.635 E.0174
G1 X84.548 Y99.566 E.01884
G1 X134.666 Y99.566 E2.7851
G1 X134.998 Y99.635 E.01884
G1 X135.257 Y99.811 E.0174
G1 X145.341 Y109.895 E.79249
G1 X145.53 Y110.185 E.01924
G1 X145.585 Y110.486 E.017
G1 X145.585 Y139.129 E1.59172
G1 X145.53 Y139.427 E.01684
G1 X145.354 Y139.706 E.01833
G1 X145.137 Y139.869 E.01508
G1 X144.75 Y139.964 E.02214
G1 X74.464 Y139.964 E3.90585
G1 X74.077 Y139.869 E.02214
G1 X73.86 Y139.706 E.01508
G1 X73.684 Y139.427 E.01833
G1 X73.66 Y139.3 E.00718
G1 X73.66 Y139.3 F9000
G1 X73.987 Y139.211
G1 F1200
G1 X73.963 Y139.129 E.00475
G1 X73.963 Y110.486 E1.59172
G1 X74.029 Y110.237 E.01431
G1 X74.11 Y110.131 E.00741
G1 X84.193 Y100.047 E.79245
G1 X84.396 Y99.924 E.01319
G1 X84.548 Y99.901 E.00854
G1 X134.666 Y99.901 E2.7851
G1 X134.91 Y99.964 E.014
G1 X135.021 Y100.047 E.0077
G1 X145.104 Y110.131 E.79245
G1 X145.234 Y110.355 E.01439
G1 X145.251 Y110.486 E.00734
G1 X145.251 Y139.129 E1.59172
G1 X145.202 Y139.345 E.01231
G1 X145.112 Y139.475 E.00879
G1 X144.982 Y139.573 E.00905
G1 X144.75 Y139.63 E.01328
G1 X74.464 Y139.63 E3.90585
G1 X74.232 Y139.573 E.01328
G1 X74.041 Y139.398 E.0144
G1 X74.004 Y139.269 E.00746
G1 X74.004 Y139.269 F9000
G1 X74.297 Y139.129
;TYPE:External perimeter
G1 F1200
G1 X74.297 Y110.486 E1.59172
G1 X74.346 Y110.367 E.00715
G1 X84.43 Y100.284 E.79245
G1 X84.548 Y100.235 E.0071
G1 X134.666 Y100.235 E2.7851
G1 X134.784 Y100.284 E.0071
G1 X144.868 Y110.367 E.79245
G1 X144.917 Y110.486 E.00715
G1 X144.917 Y139.129 E1.59172
G1 X144.871 Y139.244 E.00688
G1 X144.75 Y139.296 E.00732
G1 X74.464 Y139.296 E3.90585
G1 X74.323 Y139.219 E.00893
G1 X74.314 Y139.186 E.0019
G1 X74.299 Y138.787 F9000
G1 E-2 F2400
G1 Z.9 F9000
G1 X74.319 Y141.161
G1 Z.4
G1 E2 F2400
;TYPE:Perimeter
G1 F1200
G1 X74.464 Y141.125 E.0083
G1 X144.75 Y141.125 E3.90585
G1 X145.137 Y141.221 E.02216
G1 X145.354 Y141.384 E.01508
G1 X145.53 Y141.662 E.01828
G1 X145.585 Y141.961 E.01689
G1 X145.585 Y170.604 E1.59172
G1 X145.513 Y170.943 E.01926
G1 X145.341 Y171.195 E.01695
G1 X135.257 Y181.278 E.79245
G1 X134.998 Y181.454 E.0174
G1 X134.666 Y181.523 E.01884
G1 X84.548 Y181.523 E2.7851
G1 X84.216 Y181.454 E.01884
G1 X83.957 Y181.278 E.0174
G1 X73.873 Y171.195 E.79245
G1 X73.739 Y171.018 E.01234
G1 X73.633 Y170.692 E.01905
G1 X73.629 Y170.604 E.0049
G1 X73.629 Y141.961 E1.59172
G1 X73.684 Y141.662 E.01689
G1 X73.86 Y141.384 E.01828
G1 X74.077 Y141.221 E.01508
G1 X74.261 Y141.175 E.01054
G1 X74.261 Y141.175 F9000
G1 X74.392 Y141.477
G1 F1200
G1 X74.464 Y141.459 E.00412
G1 X144.75 Y141.459 E3.90585
G1 X144.982 Y141.517 E.01329
G1 X145.173 Y141.691 E.01436
G1 X145.251 Y141.961 E.01562
G1 X145.251 Y170.604 E1.59172
G1 X145.185 Y170.852 E.01426
G1 X145.104 Y170.958 E.00741
G1 X135.021 Y181.042 E.79245
G1 X134.818 Y181.165 E.01319
G1 X134.666 Y181.189 E.00855
G1 X84.548 Y181.189 E2.7851
G1 X84.305 Y181.126 E.01395
G1 X84.193 Y181.042 E.00778
G1 X74.11 Y170.958 E.79245
G1 X74.029 Y170.852 E.00741
G1 X73.963 Y170.604 E.01426
G1 X73.963 Y141.961 E1.59172
G1 X74.012 Y141.745 E.01231
G1 X74.102 Y141.614 E.00883
G1 X74.232 Y141.517 E.00901
G1 X74.333 Y141.492 E.00578
G1 X74.333 Y141.492 F9000
G1 X74.464 Y141.794
;TYPE:External perimeter
G1 F1200
G1 X144.75 Y141.794 E3.90585
G1 X144.891 Y141.871 E.00893
G1 X144.917 Y141.961 E.00521
G1 X144.917 Y170.604 E1.59172
G1 X144.868 Y170.722 E.0071
G1 X134.784 Y180.806 E.79249
G1 X134.666 Y180.855 E.0071
G1 X84.548 Y180.855 E2.7851
G1 X84.43 Y180.806 E.0071
G1 X74.319 Y170.687 E.79493
G1 X74.297 Y170.604 E.00477
G1 X74.297 Y141.961 E1.59172
G1 X74.343 Y141.845 E.00693
G1 X74.409 Y141.817 E.00398
G1 X74.808 Y141.796 F9000
G1 E-2 F2400
G1 Z.9 F9000
G1 X173.522 Y87.307
G1 Z.4
G1 E2 F2400
;TYPE:Solid infill
;WIDTH:0.420546
G1 F1200
G1 X172.996 Y86.78 E.04144
G1 X172.522 Y86.78 E.02638
G1 X173.372 Y87.63 E.06691
G1 X173.372 Y88.103 E.02633
G1 X172.049 Y86.78 E.10414
G1 X171.576 Y86.78 E.02633
G1 X173.372 Y88.576 E.14138
G1 X173.372 Y89.05 E.02638
G1 X171.102 Y86.78 E.17869
G1 X170.629 Y86.78 E.02633
G1 X173.372 Y89.523 E.21592
G1 X173.372 Y89.996 E.02633
G1 X170.156 Y86.78 E.25316
G1 X169.682 Y86.78 E.02638
G1 X173.372 Y90.47 E.29047
G1 X173.372 Y90.943 E.02633
G1 X169.209 Y86.78 E.3277
