; generated by PrusaSlicer 2.7.4+win64 on 2024-05-23 at 16:59:41 UTC

; 

; external perimeters extrusion width = 0.42mm
; perimeters extrusion width = 0.44mm
; infill extrusion width = 0.44mm
; solid infill extrusion width = 0.44mm
; top infill extrusion width = 0.40mm
; first layer extrusion width = 0.42mm

M201 X500 Y500 Z100 E5000 ; sets maximum accelerations, mm/sec^2
M203 X500 Y500 Z10 E60 ; sets maximum feedrates, mm / sec
M204 S500 T1000 ; sets acceleration (S) and retract acceleration (R), mm/sec^2
M205 X8.00 Y8.00 Z0.40 E5.00 ; sets the jerk limits, mm/sec
M205 S0 T0 ; sets the minimum extruding and travel feed rate, mm/sec

; printing object new endoscope tube v1.stl id:0 copy 0
; stop printing object new endoscope tube v1.stl id:0 copy 0

;TYPE:Custom
G90 ; use absolute coordinates
M83 ; extruder relative mode
M104 S150 ; set temporary nozzle temp to prevent oozing during homing
M140 S70 ; set final bed temp
G4 S30 ; allow partial nozzle warmup
G28 ; home all axis and restore leveling
G1 Z50 F240
G1 X2.0 Y10 F3000
M104 S230 ; set final nozzle temp
M190 S70 ; wait for bed temp to stabilize
M109 S230 ; wait for nozzle temp to stabilize
G1 Z0.28 F240
G92 E0
G1 X2.0 Y140 E10 F1500 ; prime the nozzle
G1 X2.3 Y140 F5000
G92 E0
G1 X2.3 Y10 E10 F1200 ; prime the nozzle
G92 E0
G21 ; set units to millimeters
G90 ; use absolute coordinates
M83 ; use relative distances for extrusion
; Filament gcode
M107
;LAYER_CHANGE
;Z:0.4
;HEIGHT:0.4
G1 E-2 F2400
G1 Z.4 F9000
G1 X171.843 Y6.923
G1 Z.4
G1 E2 F2400
M204 S500
;TYPE:Skirt/Brim
;WIDTH:0.42
G1 F1200
G1 X172.237 Y5.351 E.09006
G1 X172.82 Y4.566 E.05434
G1 X175.749 Y1.637 E.23019
G1 X177.139 Y.803 E.09008
G1 X178.106 Y.66 E.05432
G1 X189.208 Y.66 E.61695
G1 X190.78 Y1.054 E.09006
G1 X191.565 Y1.637 E.05434
G1 X194.494 Y4.566 E.23019
G1 X195.327 Y5.956 E.09005
G1 X195.471 Y6.923 E.05433
G1 X195.471 Y210.865 E11.33324
G1 X195.077 Y212.438 E.09011
G1 X194.494 Y213.223 E.05434
G1 X191.565 Y216.152 E.23019
G1 X190.175 Y216.985 E.09005
G1 X189.208 Y217.128 E.05432
G1 X178.106 Y217.128 E.61695
G1 X176.534 Y216.734 E.09006
G1 X175.749 Y216.152 E.0543
G1 X172.82 Y213.223 E.23019
G1 X171.987 Y211.833 E.09005
G1 X171.843 Y210.865 E.05438
G1 X171.843 Y6.983 E11.32991
G1 E-2 F2400
G1 X171.843 Y6.983 F9000
G1 X175.802 Y7.989
G1 E2 F2400
G1 F1200
G1 X175.996 Y7.223 E.04391
G1 X176.688 Y6.104 E.07311
G1 X177.798 Y5.119 E.08247
G1 X179.108 Y4.581 E.0787
G1 X187.925 Y4.525 E.48998
G1 X188.683 Y4.723 E.04354
G1 X189.391 Y5.046 E.04325
G1 X190.529 Y5.999 E.08249
G1 X191.289 Y7.157 E.07697
G1 X191.648 Y8.52 E.07833
G1 X191.648 Y209.267 E11.15569
G1 X191.318 Y210.566 E.07448
G1 X190.626 Y211.684 E.07307
G1 X189.516 Y212.67 E.08251
G1 X188.207 Y213.207 E.07863
G1 X179.716 Y213.306 E.47188
G1 X178.407 Y212.976 E.07502
G1 X177.287 Y212.284 E.07316
G1 X176.288 Y211.157 E.08369
G1 X175.666 Y209.306 E.10851
G1 X175.666 Y8.522 E11.15775
G1 X175.787 Y8.047 E.02724
G1 X175.787 Y8.047 F9000
G1 X176.105 Y8.127
G1 F1200
G1 X176.295 Y7.376 E.04305
G1 X176.938 Y6.326 E.06842
G1 X177.983 Y5.397 E.0777
G1 X179.204 Y4.903 E.0732
G1 X187.863 Y4.854 E.4812
G1 X188.558 Y5.033 E.03988
G1 X189.231 Y5.34 E.04111
G1 X190.294 Y6.238 E.07733
G1 X190.994 Y7.316 E.07143
G1 X191.313 Y8.541 E.07034
G1 X191.313 Y209.246 E11.15336
G1 X191.019 Y210.413 E.06688
G1 X190.376 Y211.462 E.06837
G1 X189.331 Y212.391 E.0777
G1 X188.111 Y212.885 E.07314
G1 X179.734 Y212.972 E.46554
G1 X178.559 Y212.677 E.06732
G1 X177.509 Y212.034 E.06842
G1 X176.57 Y210.975 E.07865
G1 X176 Y209.279 E.09943
G1 X176 Y8.542 E11.15514
G1 X176.09 Y8.186 E.02041
G1 X176.09 Y8.186 F9000
G1 X176.41 Y8.268
G1 F1200
G1 X176.612 Y7.484 E.04499
G1 X177.188 Y6.549 E.06103
G1 X178.168 Y5.677 E.0729
G1 X179.298 Y5.225 E.06763
G1 X187.8 Y5.183 E.47247
G1 X188.46 Y5.353 E.03787
G1 X189.07 Y5.634 E.03732
G1 X190.059 Y6.476 E.07218
G1 X190.678 Y7.427 E.06306
G1 X190.979 Y8.563 E.06531
G1 X190.979 Y209.225 E11.15097
G1 X190.702 Y210.305 E.06196
G1 X190.126 Y211.239 E.06098
G1 X189.146 Y212.112 E.07293
G1 X188.016 Y212.563 E.06761
G1 X179.753 Y212.637 E.4592
G1 X178.667 Y212.36 E.06228
G1 X177.732 Y211.784 E.06103
G1 X176.852 Y210.793 E.07365
G1 X176.335 Y209.252 E.09033
G1 X176.335 Y8.564 E11.15241
G1 X176.396 Y8.326 E.01365
G1 X176.396 Y8.326 F9000
G1 X176.714 Y8.407
G1 F1200
G1 X176.91 Y7.636 E.04421
G1 X177.439 Y6.771 E.05635
G1 X178.352 Y5.956 E.06801
G1 X179.391 Y5.547 E.06205
G1 X187.739 Y5.513 E.46391
G1 X188.334 Y5.663 E.0341
G1 X188.909 Y5.927 E.03516
G1 X189.822 Y6.713 E.06695
G1 X190.382 Y7.585 E.05759
G1 X190.645 Y8.584 E.05741
G1 X190.645 Y209.204 E11.14864
G1 X190.404 Y210.152 E.05436
G1 X189.875 Y211.017 E.05635
G1 X188.961 Y211.832 E.06805
G1 X187.923 Y212.241 E.062
G1 X179.772 Y212.303 E.45297
G1 X178.819 Y212.062 E.05463
G1 X177.954 Y211.533 E.05635
G1 X177.134 Y210.612 E.06853
G1 X176.669 Y209.224 E.08135
G1 X176.669 Y8.584 E11.14975
G1 X176.699 Y8.465 E.00682
G1 X177.018 Y8.548 F9000
G1 F1200
G1 X177.227 Y7.745 E.04611
G1 X177.689 Y6.994 E.049
G1 X178.535 Y6.237 E.06309
G1 X179.483 Y5.87 E.05649
G1 X187.678 Y5.842 E.45541
G1 X188.237 Y5.983 E.03204
G1 X188.746 Y6.22 E.0312
G1 X189.585 Y6.949 E.06177
G1 X190.066 Y7.698 E.04947
G1 X190.311 Y8.607 E.05232
G1 X190.311 Y209.182 E11.14613
G1 X190.087 Y210.044 E.04949
G1 X189.625 Y210.795 E.049
G1 X188.778 Y211.552 E.06313
G1 X187.831 Y211.918 E.05642
G1 X179.792 Y211.969 E.44674
G1 X178.928 Y211.745 E.0496
G1 X178.177 Y211.283 E.049
G1 X177.417 Y210.432 E.0634
G1 X177.003 Y209.197 E.07238
G1 X177.003 Y8.606 E11.14702
G1 X177.003 Y8.606 F9000
G1 X177.337 Y8.628
G1 F1200
G1 X177.543 Y7.855 E.04446
G1 X177.938 Y7.216 E.04175
G1 X178.717 Y6.518 E.05813
G1 X179.573 Y6.193 E.05088
G1 X187.618 Y6.171 E.44707
G1 X188.583 Y6.513 E.05689
G1 X189.345 Y7.184 E.05642
G1 X189.77 Y7.854 E.04409
G1 X189.977 Y8.628 E.04452
G1 X189.977 Y209.16 E11.14375
G1 X189.771 Y209.933 E.04446
G1 X189.376 Y210.572 E.04175
G1 X188.597 Y211.27 E.05813
G1 X187.741 Y211.595 E.05088
G1 X179.813 Y211.635 E.44057
G1 X179.038 Y211.428 E.04458
G1 X178.4 Y211.033 E.0417
G1 X177.7 Y210.252 E.05828
G1 X177.337 Y209.17 E.06342
G1 X177.337 Y8.688 E11.14097
G1 X177.337 Y8.688 F9000
G1 X177.671 Y8.688
G1 F1200
G1 X177.671 Y8.651 E.00206
G1 X177.859 Y7.968 E.03937
G1 X178.188 Y7.439 E.03462
G1 X178.898 Y6.8 E.05308
G1 X179.661 Y6.517 E.04522
G1 X187.557 Y6.5 E.43879
G1 X188.014 Y6.613 E.02616
G1 X188.418 Y6.804 E.02483
G1 X189.105 Y7.417 E.05117
G1 X189.455 Y7.967 E.03623
G1 X189.643 Y8.651 E.03942
G1 X189.643 Y209.137 E11.14119
G1 X189.455 Y209.821 E.03942
G1 X189.126 Y210.349 E.03457
G1 X188.416 Y210.988 E.05308
G1 X187.653 Y211.272 E.04524
G1 X179.835 Y211.3 E.43446
G1 X179.151 Y211.113 E.03941
G1 X178.623 Y210.784 E.03457
G1 X177.983 Y210.074 E.05312
G1 X177.671 Y209.143 E.05456
G1 X177.671 Y8.748 E11.13613
G1 X177.671 Y8.748 F9000
G1 X178.005 Y8.748
G1 F1200
G1 X178.005 Y8.675 E.00406
G1 X178.173 Y8.083 E.0342
G1 X178.437 Y7.663 E.02757
G1 X179.077 Y7.084 E.04796
G1 X179.747 Y6.841 E.03961
G1 X187.499 Y6.83 E.43079
G1 X188.252 Y7.095 E.04436
G1 X188.864 Y7.65 E.04591
G1 X189.141 Y8.083 E.02856
G1 X189.309 Y8.675 E.0342
G1 X189.309 Y209.113 E11.13852
G1 X189.141 Y209.706 E.03425
G1 X188.877 Y210.126 E.02757
G1 X188.237 Y210.705 E.04796
G1 X187.567 Y210.948 E.03961
G1 X179.858 Y210.966 E.4284
G1 X179.266 Y210.798 E.0342
G1 X178.846 Y210.534 E.02757
G1 X178.267 Y209.896 E.04788
G1 X178.005 Y209.116 E.04573
G1 X178.005 Y8.808 E11.1313
G1 X178.005 Y8.808 F9000
G1 X178.339 Y8.808
G1 F1200
G1 X178.339 Y8.7 E.006
G1 X178.487 Y8.201 E.02892
G1 X178.686 Y7.886 E.02071
G1 X179.253 Y7.368 E.04268
G1 X179.83 Y7.165 E.03399
G1 X187.443 Y7.16 E.42306
G1 X187.761 Y7.233 E.01813
G1 X188.086 Y7.386 E.01996
G1 X188.622 Y7.88 E.04051
G1 X188.827 Y8.201 E.02117
G1 X188.974 Y8.7 E.02891
G1 X188.974 Y209.088 E11.13574
G1 X188.827 Y209.588 E.02896
G1 X188.628 Y209.902 E.02066
G1 X188.061 Y210.42 E.04268
G1 X187.484 Y210.623 E.03399
G1 X179.883 Y210.632 E.42239
G1 X179.384 Y210.485 E.02891
G1 X179.069 Y210.285 E.02074
G1 X178.552 Y209.719 E.0426
G1 X178.339 Y209.089 E.03696
G1 X178.339 Y8.868 E11.12646
G1 X178.339 Y8.868 F9000
G1 X178.674 Y8.868
G1 F1200
G1 X178.674 Y8.726 E.00789
G1 X178.798 Y8.322 E.02348
G1 X179.295 Y7.75 E.04211
G1 X179.911 Y7.491 E.03713
G1 X187.424 Y7.494 E.4175
G1 X187.918 Y7.677 E.02928
G1 X188.378 Y8.109 E.03507
G1 X188.64 Y8.726 E.03725
G1 X188.64 Y209.062 E11.13285
G1 X188.515 Y209.466 E.0235
G1 X188.019 Y210.038 E.04207
G1 X187.403 Y210.298 E.03716
G1 X179.909 Y210.298 E.41645
G1 X179.505 Y210.173 E.0235
G1 X178.934 Y209.677 E.04203
G1 X178.674 Y209.061 E.03716
G1 X178.674 Y8.928 E11.12157
G1 X178.674 Y8.928 F9000
G1 X179.008 Y8.928
G1 F1200
G1 X179.008 Y8.754 E.00967
G1 X179.183 Y8.335 E.02523
G1 X179.52 Y7.998 E.02648
G1 X179.939 Y7.825 E.02519
G1 X187.404 Y7.828 E.41484
G1 X187.75 Y7.967 E.02072
G1 X188.132 Y8.336 E.02951
G1 X188.306 Y8.754 E.02516
G1 X188.306 Y209.034 E11.12974
G1 X188.131 Y209.454 E.02528
G1 X187.794 Y209.791 E.02648
G1 X187.375 Y209.964 E.02519
G1 X179.937 Y209.964 E.41334
G1 X179.518 Y209.789 E.02523
G1 X179.181 Y209.452 E.02648
G1 X179.008 Y209.033 E.02519
G1 X179.008 Y8.988 E11.11668
G1 X179.008 Y8.988 F9000
G1 X179.342 Y8.988
G1 F1200
G1 X179.342 Y8.785 E.01128
G1 X179.43 Y8.56 E.01343
G1 X179.743 Y8.247 E.0246
G1 X179.969 Y8.159 E.01348
G1 X187.358 Y8.159 E.41061
G1 X187.58 Y8.256 E.01346
G1 X187.884 Y8.56 E.02389
G1 X187.972 Y8.785 E.01343
G1 X187.972 Y209.003 E11.1263
G1 X187.884 Y209.228 E.01343
G1 X187.571 Y209.541 E.0246
G1 X187.345 Y209.63 E.0135
G1 X179.969 Y209.63 E.40989
G1 X179.743 Y209.541 E.0135
G1 X179.43 Y209.228 E.0246
G1 X179.342 Y209.003 E.01343
G1 X179.342 Y9.048 E11.11168
G1 X179.342 Y9.048 F9000
G1 X179.676 Y9.048
G1 F1200
G1 X179.676 Y8.823 E.0125
G1 X180.006 Y8.493 E.02593
G1 X187.37 Y8.518 E.40923
G1 X187.638 Y8.823 E.02256
G1 X187.638 Y208.966 E11.12213
G1 X187.308 Y209.295 E.0259
G1 X180.006 Y209.295 E.40578
G1 X179.676 Y208.966 E.0259
G1 X179.676 Y9.108 E11.10629
G1 X179.676 Y9.108 F9000
G1 X180.01 Y9.108
G1 F1200
G1 X180.01 Y8.925 E.01017
G1 X180.108 Y8.827 E.0077
G1 X187.206 Y8.827 E.39444
G1 X187.304 Y8.925 E.0077
G1 X187.304 Y208.863 E11.11074
G1 X187.206 Y208.961 E.0077
G1 X180.108 Y208.961 E.39444
G1 X180.01 Y208.863 E.0077
G1 X180.01 Y9.168 E11.09723
; printing object new endoscope tube v1.stl id:0 copy 0
G1 X180.01 Y9.168 F9000
G1 X181.056 Y9.873
;TYPE:Perimeter
;WIDTH:0.42
G1 F1200
G1 X186.258 Y9.873 E.28908
G1 X186.258 Y12.474 E.14454
G1 X186.258 Y207.916 E10.86088
G1 X181.056 Y207.916 E.28908
G1 X181.056 Y9.933 E11.00209
G1 X181.056 Y9.933 F9000
G1 X180.721 Y9.538
G1 F1200
G1 X186.592 Y9.538 E.32626
G1 X186.592 Y12.474 E.16316
G1 X186.592 Y208.25 E10.87944
G1 X180.721 Y208.25 E.32626
G1 X180.721 Y9.598 E11.03926
G1 X180.721 Y9.598 F9000
G1 X180.387 Y9.204
;TYPE:External perimeter
G1 F1200
G1 X186.926 Y9.204 E.36338
G1 X186.926 Y12.474 E.18172
G1 X186.926 Y208.584 E10.898
G1 X180.387 Y208.584 E.36338
G1 X180.387 Y9.264 E11.07638
G1 X180.783 Y9.205 F9000
G1 E-2 F2400
G1 X186.151 Y10.656 F9000
G1 E2 F2400
;TYPE:Solid infill
;WIDTH:0.420249
G1 F1200
G1 X185.626 Y10.13 E.04133
G1 X185.153 Y10.13 E.0263
G1 X186.001 Y10.978 E.06669
G1 X186.001 Y11.451 E.0263
G1 X184.68 Y10.13 E.10389
G1 X184.207 Y10.13 E.0263
G1 X186.001 Y11.924 E.14109
G1 X186.001 Y12.397 E.0263
G1 X183.734 Y10.13 E.17829
G1 X183.261 Y10.13 E.0263
G1 X186.001 Y12.87 E.21549
G1 X186.001 Y13.343 E.0263
G1 X182.788 Y10.13 E.25269
G1 X182.315 Y10.13 E.0263
G1 X186.001 Y13.816 E.2899
G1 X186.001 Y14.289 E.0263
G1 X181.842 Y10.13 E.3271
G1 X181.369 Y10.13 E.0263
G1 X186.001 Y14.761 E.36426
G1 X186.001 Y15.234 E.0263
G1 X181.313 Y10.546 E.3687
G1 X181.313 Y11.019 E.0263
G1 X186.001 Y15.707 E.3687
G1 X186.001 Y16.18 E.0263
G1 X181.313 Y11.492 E.3687
G1 X181.313 Y11.965 E.0263
G1 X186.001 Y16.653 E.3687
G1 X186.001 Y17.126 E.0263
G1 X181.313 Y12.438 E.3687
G1 X181.313 Y12.911 E.0263
G1 X186.001 Y17.599 E.3687
G1 X186.001 Y18.072 E.0263
G1 X181.313 Y13.384 E.3687
G1 X181.313 Y13.857 E.0263
G1 X186.001 Y18.545 E.3687
G1 X186.001 Y19.018 E.0263
G1 X181.313 Y14.33 E.3687
G1 X181.313 Y14.803 E.0263
G1 X186.001 Y19.491 E.3687
G1 X186.001 Y19.964 E.0263
G1 X181.313 Y15.276 E.3687
G1 X181.313 Y15.749 E.0263
G1 X186.001 Y20.437 E.3687
G1 X186.001 Y20.909 E.02625
G1 X181.313 Y16.222 E.36866
G1 X181.313 Y16.694 E.02625
G1 X186.001 Y21.382 E.3687
G1 X186.001 Y21.855 E.0263
G1 X181.313 Y17.167 E.3687
G1 X181.313 Y17.64 E.0263
G1 X186.001 Y22.328 E.3687
G1 X186.001 Y22.801 E.0263
G1 X181.313 Y18.113 E.3687
G1 X181.313 Y18.586 E.0263
G1 X186.001 Y23.274 E.3687
G1 X186.001 Y23.747 E.0263
G1 X181.313 Y19.059 E.3687
G1 X181.313 Y19.532 E.0263
G1 X186.001 Y24.22 E.3687
G1 X186.001 Y24.693 E.0263
G1 X181.313 Y20.005 E.3687
G1 X181.313 Y20.478 E.0263
G1 X186.001 Y25.166 E.3687
G1 X186.001 Y25.639 E.0263
G1 X181.313 Y20.951 E.3687
G1 X181.313 Y21.424 E.0263
G1 X186.001 Y26.112 E.3687
G1 X186.001 Y26.585 E.0263
G1 X181.313 Y21.897 E.3687
G1 X181.313 Y22.37 E.0263
G1 X186.001 Y27.057 E.36866
G1 X186.001 Y27.53 E.0263
G1 X181.313 Y22.843 E.36866
G1 X181.313 Y23.315 E.02625
G1 X186.001 Y28.003 E.3687
G1 X186.001 Y28.476 E.0263
G1 X181.313 Y23.788 E.3687
G1 X181.313 Y24.261 E.0263
G1 X186.001 Y28.949 E.3687
G1 X186.001 Y29.422 E.0263
G1 X181.313 Y24.734 E.3687
G1 X181.313 Y25.207 E.0263
G1 X186.001 Y29.895 E.3687
G1 X186.001 Y30.368 E.0263
G1 X181.313 Y25.68 E.3687
G1 X181.313 Y26.153 E.0263
G1 X186.001 Y30.841 E.3687
G1 X186.001 Y31.314 E.0263
G1 X181.313 Y26.626 E.3687
G1 X181.313 Y27.099 E.0263
G1 X186.001 Y31.787 E.3687
G1 X186.001 Y32.26 E.0263
G1 X181.313 Y27.572 E.3687
G1 X181.313 Y28.045 E.0263
G1 X186.001 Y32.733 E.3687
G1 X186.001 Y33.206 E.0263
G1 X181.313 Y28.518 E.3687
G1 X181.313 Y28.991 E.0263
G1 X186.001 Y33.678 E.36866
G1 X186.001 Y34.151 E.0263
G1 X181.313 Y29.463 E.3687
G1 X181.313 Y29.936 E.0263
G1 X186.001 Y34.624 E.3687
G1 X186.001 Y35.097 E.0263
G1 X181.313 Y30.409 E.3687
G1 X181.313 Y30.882 E.0263
G1 X186.001 Y35.57 E.3687
G1 X186.001 Y36.043 E.0263
G1 X181.313 Y31.355 E.3687
G1 X181.313 Y31.828 E.0263
G1 X186.001 Y36.516 E.3687
G1 X186.001 Y36.989 E.0263
G1 X181.313 Y32.301 E.3687
G1 X181.313 Y32.774 E.0263
G1 X186.001 Y37.462 E.3687
G1 X186.001 Y37.935 E.0263
G1 X181.313 Y33.247 E.3687
G1 X181.313 Y33.72 E.0263
G1 X186.001 Y38.408 E.3687
G1 X186.001 Y38.881 E.0263
G1 X181.313 Y34.193 E.3687
G1 X181.313 Y34.666 E.0263
G1 X186.001 Y39.354 E.3687
G1 X186.001 Y39.826 E.02625
G1 X181.313 Y35.139 E.36866
G1 X181.313 Y35.611 E.02625
G1 X186.001 Y40.299 E.3687
G1 X186.001 Y40.772 E.0263
G1 X181.313 Y36.084 E.3687
G1 X181.313 Y36.557 E.0263
G1 X186.001 Y41.245 E.3687
G1 X186.001 Y41.718 E.0263
G1 X181.313 Y37.03 E.3687
G1 X181.313 Y37.503 E.0263
G1 X186.001 Y42.191 E.3687
G1 X186.001 Y42.664 E.0263
G1 X181.313 Y37.976 E.3687
G1 X181.313 Y38.449 E.0263
G1 X186.001 Y43.137 E.3687
G1 X186.001 Y43.61 E.0263
G1 X181.313 Y38.922 E.3687
G1 X181.313 Y39.395 E.0263
G1 X186.001 Y44.083 E.3687
G1 X186.001 Y44.556 E.0263
G1 X181.313 Y39.868 E.3687
G1 X181.313 Y40.341 E.0263
G1 X186.001 Y45.029 E.3687
G1 X186.001 Y45.502 E.0263
G1 X181.313 Y40.814 E.3687
G1 X181.313 Y41.287 E.0263
G1 X186.001 Y45.974 E.36866
G1 X186.001 Y46.447 E.0263
G1 X181.313 Y41.759 E.3687
G1 X181.313 Y42.232 E.0263
G1 X186.001 Y46.92 E.3687
G1 X186.001 Y47.393 E.0263
G1 X181.313 Y42.705 E.3687
G1 X181.313 Y43.178 E.0263
G1 X186.001 Y47.866 E.3687
G1 X186.001 Y48.339 E.0263
G1 X181.313 Y43.651 E.3687
G1 X181.313 Y44.124 E.0263
G1 X186.001 Y48.812 E.3687
G1 X186.001 Y49.285 E.0263
G1 X181.313 Y44.597 E.3687
G1 X181.313 Y45.07 E.0263
G1 X186.001 Y49.758 E.3687
G1 X186.001 Y50.231 E.0263
G1 X181.313 Y45.543 E.3687
G1 X181.313 Y46.016 E.0263
G1 X186.001 Y50.704 E.3687
G1 X186.001 Y51.177 E.0263
G1 X181.313 Y46.489 E.3687
G1 X181.313 Y46.962 E.0263
G1 X186.001 Y51.65 E.3687
G1 X186.001 Y52.122 E.02625
G1 X181.313 Y47.435 E.36866
G1 X181.313 Y47.908 E.0263
G1 X186.001 Y52.595 E.36866
G1 X186.001 Y53.068 E.0263
G1 X181.313 Y48.38 E.3687
