; generated by PrusaSlicer 2.7.4+win64 on 2024-06-04 at 11:09:09 UTC

; 

; external perimeters extrusion width = 0.42mm
; perimeters extrusion width = 0.44mm
; infill extrusion width = 0.44mm
; solid infill extrusion width = 0.44mm
; top infill extrusion width = 0.40mm
; first layer extrusion width = 0.42mm

; external perimeters extrusion width = 0.42mm
; perimeters extrusion width = 0.44mm
; infill extrusion width = 0.44mm
; solid infill extrusion width = 0.44mm
; top infill extrusion width = 0.40mm
; first layer extrusion width = 0.42mm

; external perimeters extrusion width = 0.42mm
; perimeters extrusion width = 0.44mm
; infill extrusion width = 0.44mm
; solid infill extrusion width = 0.44mm
; top infill extrusion width = 0.40mm
; first layer extrusion width = 0.42mm

; external perimeters extrusion width = 0.42mm
; perimeters extrusion width = 0.44mm
; infill extrusion width = 0.44mm
; solid infill extrusion width = 0.44mm
; top infill extrusion width = 0.40mm
; first layer extrusion width = 0.42mm

M201 X500 Y500 Z100 E5000 ; sets maximum accelerations, mm/sec^2
M203 X500 Y500 Z10 E60 ; sets maximum feedrates, mm / sec
M204 S500 T1000 ; sets acceleration (S) and retract acceleration (R), mm/sec^2
M205 X8.00 Y8.00 Z0.40 E5.00 ; sets the jerk limits, mm/sec
M205 S0 T0 ; sets the minimum extruding and travel feed rate, mm/sec

; printing object newflawumm v0.stl id:1 copy 0
; stop printing object newflawumm v0.stl id:1 copy 0
; printing object newflawumm v0.stl id:0 copy 0
; stop printing object newflawumm v0.stl id:0 copy 0
; printing object newflawumm v0.stl id:3 copy 0
; stop printing object newflawumm v0.stl id:3 copy 0
; printing object newflawumm v0.stl id:2 copy 0
; stop printing object newflawumm v0.stl id:2 copy 0

;TYPE:Custom
G90 ; use absolute coordinates
M83 ; extruder relative mode
M104 S130 ; set temporary nozzle temp to prevent oozing during homing
M140 S60 ; set final bed temp
G4 S30 ; allow partial nozzle warmup
G28 ; home all axis and restore leveling
G1 Z50 F240
G1 X2.0 Y10 F3000
M104 S250 ; set final nozzle temp
M190 S60 ; wait for bed temp to stabilize
M109 S250 ; wait for nozzle temp to stabilize
G1 Z0.28 F240
G92 E0
G1 X2.0 Y140 E10 F1500 ; prime the nozzle
G1 X2.3 Y140 F5000
G92 E0
G1 X2.3 Y10 E10 F1200 ; prime the nozzle
G92 E0
G21 ; set units to millimeters
G90 ; use absolute coordinates
M83 ; use relative distances for extrusion
; Filament gcode
M107
;LAYER_CHANGE
;Z:0.2
;HEIGHT:0.2
G1 E-.8 F1800
G1 Z.2 F9000
G1 X24.241 Y146.048
G1 Z.2
G1 E.8 F1800
M204 S500
;TYPE:Skirt/Brim
;WIDTH:0.42
G1 F600
G1 X71.865 Y144.253 E1.49428
G1 X119.92 Y144.054 E1.50674
G1 X154.994 Y144.055 E1.09972
G1 X201.021 Y144.877 E1.44337
G1 X202.597 Y145.299 E.05116
G1 X203.791 Y146.411 E.05116
G1 X204.338 Y148.254 E.06028
G1 X204.338 Y203.254 E1.72449
G1 X203.944 Y204.837 E.05115
G1 X202.854 Y206.051 E.05116
G1 X200.989 Y206.631 E.06124
G1 X59.368 Y207.8 E4.44058
G1 X24.368 Y207.8 E1.0974
G1 X22.785 Y207.406 E.05115
G1 X21.571 Y206.316 E.05116
G1 X20.991 Y204.423 E.06208
G1 X20.991 Y149.423 E1.72449
G1 X21.385 Y147.84 E.05115
G1 X22.475 Y146.626 E.05116
G1 X24.184 Y146.067 E.05638
;WIPE_START
G1 F7200
G1 X24.241 Y146.048 E-.01427
G1 X27.547 Y145.923 E-.78573
;WIPE_END
; printing object newflawumm v0.stl id:3 copy 0
G1 X181.166 Y167.587 F9000
G1 E.8 F1800
;TYPE:Perimeter
;WIDTH:0.419999
G1 F600
G1 X181.083 Y167.567 E.00268
G1 X166.648 Y167.567 E.4526
G1 X166.648 Y148.941 E.584
G1 X200.274 Y148.941 E1.05432
G1 X200.274 Y159.325 E.32558
G1 X200.274 Y202.567 E1.35582
G1 X166.648 Y202.567 E1.05432
G1 X166.648 Y183.941 E.584
G1 X181.17 Y183.934 E.45533
G1 X181.421 Y183.828 E.00854
G1 X181.588 Y183.629 E.00815
G1 X181.648 Y183.375 E.00818
G1 X181.648 Y168.132 E.47793
G1 X181.641 Y168.043 E.0028
G1 X181.545 Y167.807 E.00799
G1 X181.342 Y167.629 E.00847
G1 X181.225 Y167.601 E.00377
G1 X181.225 Y167.601 F9000
G1 X181.083 Y167.944
;TYPE:External perimeter
G1 F600
G1 X166.271 Y167.944 E.46442
G1 X166.271 Y148.564 E.60765
G1 X200.651 Y148.564 E1.07796
G1 X200.651 Y159.325 E.3374
G1 X200.651 Y202.944 E1.36764
G1 X166.271 Y202.944 E1.07796
G1 X166.271 Y183.564 E.60765
G1 X181.083 Y183.564 E.46442
G1 X181.205 Y183.518 E.00409
G1 X181.271 Y183.375 E.00494
G1 X181.271 Y168.132 E.47793
G1 X181.229 Y168.013 E.00396
G1 X181.137 Y167.969 E.0032
;WIPE_START
G1 F7200
G1 X181.083 Y167.944 E-.01413
G1 X177.774 Y167.944 E-.78587
;WIPE_END
G1 X177.487 Y161.197 F9000
G1 E.8 F1800
;TYPE:Perimeter
G1 F600
G1 X176.944 Y161.499 E.01948
G1 X176.32 Y161.738 E.02095
G1 X175.668 Y161.886 E.02096
G1 X175.001 Y161.94 E.02098
G1 X174.334 Y161.898 E.02095
G1 X173.68 Y161.761 E.02095
G1 X173.051 Y161.533 E.02098
G1 X172.462 Y161.218 E.02094
G1 X171.923 Y160.822 E.02097
G1 X171.446 Y160.353 E.02097
G1 X171.041 Y159.821 E.02096
G1 X170.715 Y159.237 E.02097
G1 X170.476 Y158.613 E.02095
G1 X170.342 Y158.023 E.01897
G1 X170.276 Y157.302 E.0227
G1 X170.317 Y156.627 E.0212
G1 X170.44 Y156.035 E.01896
G1 X170.679 Y155.351 E.02272
G1 X170.997 Y154.754 E.02121
G1 X171.393 Y154.216 E.02095
G1 X171.862 Y153.739 E.02097
G1 X172.394 Y153.333 E.02098
G1 X172.978 Y153.008 E.02096
G1 X173.602 Y152.769 E.02095
G1 X174.254 Y152.621 E.02096
G1 X174.857 Y152.572 E.01897
G1 X175.58 Y152.609 E.0227
G1 X176.243 Y152.746 E.02123
G1 X176.871 Y152.974 E.02095
G1 X177.461 Y153.29 E.02099
G1 X177.999 Y153.686 E.02095
G1 X178.476 Y154.155 E.02097
G1 X178.881 Y154.686 E.02094
G1 X179.207 Y155.27 E.02097
G1 X179.446 Y155.895 E.02098
G1 X179.58 Y156.484 E.01894
G1 X179.646 Y157.205 E.0227
G1 X179.605 Y157.881 E.02123
G1 X179.469 Y158.535 E.02094
G1 X179.24 Y159.164 E.02099
G1 X178.925 Y159.753 E.02094
G1 X178.529 Y160.292 E.02097
G1 X178.06 Y160.769 E.02097
G1 X177.538 Y161.167 E.02058
G1 X177.538 Y161.167 F9000
G1 X177.302 Y160.872
;TYPE:External perimeter
G1 F600
G1 X176.764 Y161.168 E.01925
G1 X176.188 Y161.385 E.0193
G1 X175.588 Y161.518 E.01927
G1 X174.975 Y161.564 E.01927
G1 X174.361 Y161.522 E.0193
G1 X173.76 Y161.393 E.01927
G1 X173.183 Y161.18 E.01928
G1 X172.642 Y160.887 E.01929
G1 X172.149 Y160.52 E.01927
G1 X171.713 Y160.086 E.01929
G1 X171.343 Y159.595 E.01928
G1 X171.046 Y159.056 E.0193
G1 X170.83 Y158.481 E.01926
G1 X170.711 Y157.943 E.01728
G1 X170.651 Y157.27 E.02119
G1 X170.693 Y156.654 E.01936
G1 X170.808 Y156.115 E.01728
G1 X171.034 Y155.478 E.02119
G1 X171.328 Y154.935 E.01936
G1 X171.695 Y154.442 E.01927
G1 X172.129 Y154.005 E.01931
G1 X172.62 Y153.635 E.01928
G1 X173.158 Y153.339 E.01925
G1 X173.734 Y153.122 E.0193
G1 X174.334 Y152.99 E.01926
G1 X174.883 Y152.948 E.01726
G1 X175.558 Y152.986 E.0212
G1 X176.162 Y153.115 E.01937
G1 X176.739 Y153.328 E.01928
G1 X177.28 Y153.621 E.01929
G1 X177.773 Y153.988 E.01927
G1 X178.209 Y154.421 E.01927
G1 X178.579 Y154.912 E.01928
G1 X178.876 Y155.451 E.0193
G1 X179.093 Y156.027 E.0193
G1 X179.211 Y156.564 E.01724
G1 X179.271 Y157.237 E.02119
G1 X179.229 Y157.854 E.01939
G1 X179.1 Y158.455 E.01927
G1 X178.887 Y159.032 E.01928
G1 X178.594 Y159.572 E.01926
G1 X178.227 Y160.066 E.0193
G1 X177.794 Y160.502 E.01927
G1 X177.35 Y160.836 E.01742
;WIPE_START
G1 F7200
G1 X177.302 Y160.872 E-.01425
G1 X176.764 Y161.168 E-.14584
G1 X176.188 Y161.385 E-.14619
G1 X175.588 Y161.518 E-.14596
G1 X174.975 Y161.564 E-.146
G1 X174.361 Y161.522 E-.14617
G1 X174.132 Y161.473 E-.05559
;WIPE_END
G1 X171.9 Y190.71 F9000
G1 E.8 F1800
;TYPE:Perimeter
G1 F600
G1 X172.353 Y190.364 E.01787
G1 X172.978 Y190.008 E.02255
G1 X173.602 Y189.769 E.02095
G1 X174.254 Y189.621 E.02096
G1 X174.857 Y189.572 E.01897
G1 X175.58 Y189.609 E.0227
G1 X176.243 Y189.746 E.02123
G1 X176.944 Y190.008 E.02346
G1 X177.461 Y190.29 E.01846
G1 X177.999 Y190.686 E.02095
G1 X178.476 Y191.155 E.02097
G1 X178.881 Y191.686 E.02094
G1 X179.207 Y192.27 E.02097
G1 X179.446 Y192.895 E.02098
G1 X179.58 Y193.484 E.01894
G1 X179.646 Y194.205 E.0227
G1 X179.605 Y194.881 E.02123
G1 X179.469 Y195.535 E.02094
G1 X179.24 Y196.164 E.02099
G1 X178.925 Y196.753 E.02094
G1 X178.529 Y197.292 E.02097
G1 X178.06 Y197.769 E.02097
G1 X177.528 Y198.174 E.02096
G1 X176.944 Y198.499 E.02096
G1 X176.32 Y198.738 E.02095
G1 X175.668 Y198.886 E.02096
G1 X175.001 Y198.94 E.02098
G1 X174.334 Y198.898 E.02095
G1 X173.68 Y198.761 E.02095
G1 X173.051 Y198.533 E.02098
G1 X172.462 Y198.218 E.02094
G1 X171.923 Y197.822 E.02097
G1 X171.446 Y197.353 E.02097
G1 X171.041 Y196.821 E.02096
G1 X170.715 Y196.237 E.02097
G1 X170.476 Y195.613 E.02095
G1 X170.329 Y194.961 E.02096
G1 X170.275 Y194.294 E.02098
G1 X170.317 Y193.627 E.02095
G1 X170.454 Y192.972 E.02098
G1 X170.659 Y192.404 E.01893
G1 X170.993 Y191.761 E.02272
G1 X171.393 Y191.216 E.0212
G1 X171.853 Y190.747 E.0206
G1 X171.853 Y190.747 F9000
G1 X172.129 Y191.005
;TYPE:External perimeter
G1 F600
G1 X172.579 Y190.666 E.01767
G1 X173.158 Y190.339 E.02085
G1 X173.734 Y190.122 E.0193
G1 X174.334 Y189.99 E.01926
G1 X174.883 Y189.948 E.01726
G1 X175.558 Y189.986 E.0212
G1 X176.162 Y190.115 E.01937
G1 X176.764 Y190.339 E.02014
G1 X177.28 Y190.621 E.01844
G1 X177.773 Y190.988 E.01927
G1 X178.209 Y191.421 E.01927
G1 X178.579 Y191.912 E.01928
G1 X178.876 Y192.451 E.0193
G1 X179.093 Y193.027 E.0193
G1 X179.211 Y193.564 E.01724
G1 X179.271 Y194.237 E.02119
G1 X179.229 Y194.854 E.01939
G1 X179.1 Y195.455 E.01927
G1 X178.887 Y196.032 E.01928
G1 X178.594 Y196.572 E.01926
G1 X178.227 Y197.066 E.0193
G1 X177.794 Y197.502 E.01927
G1 X177.302 Y197.872 E.0193
G1 X176.764 Y198.168 E.01925
G1 X176.188 Y198.385 E.0193
G1 X175.588 Y198.518 E.01927
G1 X174.975 Y198.564 E.01927
G1 X174.361 Y198.522 E.0193
G1 X173.76 Y198.393 E.01927
G1 X173.183 Y198.18 E.01928
G1 X172.642 Y197.887 E.01929
G1 X172.149 Y197.52 E.01927
G1 X171.713 Y197.086 E.01929
G1 X171.343 Y196.595 E.01928
G1 X171.046 Y196.056 E.0193
G1 X170.83 Y195.481 E.01926
G1 X170.697 Y194.88 E.0193
G1 X170.651 Y194.267 E.01927
G1 X170.693 Y193.654 E.01927
G1 X170.822 Y193.052 E.0193
G1 X171.013 Y192.536 E.01725
G1 X171.327 Y191.937 E.02121
G1 X171.695 Y191.442 E.01934
G1 X172.086 Y191.048 E.0174
;WIPE_START
G1 F7200
G1 X172.129 Y191.005 E-.01444
G1 X172.579 Y190.666 E-.13381
G1 X173.158 Y190.339 E-.15793
G1 X173.734 Y190.122 E-.14619
G1 X174.334 Y189.99 E-.14591
G1 X174.883 Y189.948 E-.13077
G1 X175.181 Y189.965 E-.07095
;WIPE_END
G1 X200.153 Y149.828 F9000
G1 E.8 F1800
;TYPE:Solid infill
;WIDTH:0.421983
G1 F600
G1 X199.557 Y149.231 E.02659
G1 X199.02 Y149.231 E.01693
G1 X199.984 Y150.194 E.04295
G1 X199.984 Y150.73 E.01689
G1 X198.484 Y149.231 E.06684
G1 X197.948 Y149.231 E.01689
G1 X199.984 Y151.266 E.09073
G1 X199.984 Y151.803 E.01693
G1 X197.412 Y149.231 E.11465
G1 X196.876 Y149.231 E.01689
G1 X199.984 Y152.339 E.13854
G1 X199.984 Y152.875 E.01689
G1 X196.34 Y149.231 E.16243
G1 X195.804 Y149.231 E.01689
G1 X199.984 Y153.411 E.18632
G1 X199.984 Y153.947 E.01689
G1 X195.268 Y149.231 E.21022
G1 X194.732 Y149.231 E.01689
G1 X199.984 Y154.483 E.23411
G1 X199.984 Y155.019 E.01689
G1 X194.196 Y149.231 E.258
G1 X193.66 Y149.231 E.01689
G1 X199.984 Y155.555 E.28189
G1 X199.984 Y156.091 E.01689
G1 X193.124 Y149.231 E.30578
G1 X192.588 Y149.231 E.01689
G1 X199.984 Y156.627 E.32968
G1 X199.984 Y157.163 E.01689
G1 X192.051 Y149.231 E.35359
G1 X191.515 Y149.231 E.01689
G1 X199.984 Y157.699 E.37748
G1 X199.984 Y158.235 E.01689
G1 X190.979 Y149.231 E.40137
G1 X190.443 Y149.231 E.01689
G1 X199.984 Y158.772 E.42529
G1 X199.984 Y159.308 E.01689
G1 X189.907 Y149.231 E.44918
G1 X189.371 Y149.231 E.01689
G1 X199.984 Y159.844 E.47307
G1 X199.984 Y160.38 E.01689
G1 X188.835 Y149.231 E.49697
G1 X188.299 Y149.231 E.01689
G1 X199.984 Y160.916 E.52086
G1 X199.984 Y161.452 E.01689
G1 X187.763 Y149.231 E.54475
G1 X187.227 Y149.231 E.01689
G1 X199.984 Y161.988 E.56864
G1 X199.984 Y162.524 E.01689
G1 X186.691 Y149.231 E.59253
G1 X186.155 Y149.231 E.01689
G1 X199.984 Y163.06 E.61643
G1 X199.984 Y163.596 E.01689
G1 X185.619 Y149.231 E.64032
G1 X185.082 Y149.231 E.01693
G1 X199.984 Y164.132 E.66423
G1 X199.984 Y164.668 E.01689
G1 X184.546 Y149.231 E.68813
G1 X184.01 Y149.231 E.01689
G1 X199.984 Y165.204 E.71202
G1 X199.984 Y165.741 E.01693
G1 X183.474 Y149.231 E.73593
G1 X182.938 Y149.231 E.01689
G1 X199.984 Y166.277 E.75982
G1 X199.984 Y166.813 E.01689
G1 X182.402 Y149.231 E.78372
G1 X181.866 Y149.231 E.01689
G1 X199.984 Y167.349 E.80761
G1 X199.984 Y167.885 E.01689
G1 X181.33 Y149.231 E.8315
G1 X180.794 Y149.231 E.01689
G1 X199.984 Y168.421 E.85539
G1 X199.984 Y168.957 E.01689
G1 X180.258 Y149.231 E.87928
G1 X179.722 Y149.231 E.01689
G1 X199.984 Y169.493 E.90318
G1 X199.984 Y170.029 E.01689
G1 X179.186 Y149.231 E.92707
G1 X178.65 Y149.231 E.01689
G1 X199.984 Y170.565 E.95096
G1 X199.984 Y171.101 E.01689
G1 X178.114 Y149.231 E.97485
G1 X177.577 Y149.231 E.01693
G1 X199.984 Y171.637 E.99877
G1 X199.984 Y172.173 E.01689
G1 X177.041 Y149.231 E1.02266
G1 X176.505 Y149.231 E.01689
G1 X199.984 Y172.71 E1.04657
G1 X199.984 Y173.246 E.01689
G1 X175.969 Y149.231 E1.07047
G1 X175.433 Y149.231 E.01689
G1 X199.984 Y173.782 E1.09436
G1 X199.984 Y174.318 E.01689
G1 X174.897 Y149.231 E1.11825
G1 X174.361 Y149.231 E.01689
G1 X199.984 Y174.854 E1.14214
G1 X199.984 Y175.39 E.01689
G1 X173.825 Y149.231 E1.16604
G1 X173.289 Y149.231 E.01689
G1 X176.634 Y152.576 E.1491
G1 X176.415 Y152.494 E.00737
G1 X175.906 Y152.385 E.01641
G1 X172.753 Y149.231 E.14057
G1 X172.217 Y149.231 E.01689
G1 X175.29 Y152.304 E.13698
G1 X174.74 Y152.29 E.01734
G1 X171.681 Y149.231 E.13635
G1 X171.145 Y149.231 E.01689
G1 X174.242 Y152.329 E.13807
G1 X173.8 Y152.423 E.01424
G1 X170.608 Y149.231 E.14228
G1 X170.072 Y149.231 E.01689
G1 X173.388 Y152.547 E.14781
G1 X172.998 Y152.693 E.01313
G1 X169.536 Y149.231 E.15432
G1 X169 Y149.231 E.01689
G1 X172.636 Y152.867 E.16207
G1 X172.292 Y153.059 E.01242
G1 X168.464 Y149.231 E.17063
G1 X167.928 Y149.231 E.01689
G1 X171.979 Y153.282 E.18057
G1 X171.68 Y153.519 E.01203
G1 X167.392 Y149.231 E.19114
G1 X166.939 Y149.231 E.01428
G1 X166.939 Y149.314 E.00262
G1 X171.409 Y153.784 E.19925
G1 X171.236 Y153.954 E.00764
G1 X171.153 Y154.065 E.00437
G1 X166.939 Y149.85 E.18786
G1 X166.939 Y150.386 E.01689
G1 X170.924 Y154.371 E.17763
G1 X170.704 Y154.687 E.01214
G1 X166.939 Y150.922 E.16782
G1 X166.939 Y151.458 E.01689
G1 X170.519 Y155.038 E.15958
G1 X170.408 Y155.247 E.00746
G1 X170.351 Y155.407 E.00535
G1 X166.939 Y151.994 E.15211
G1 X166.939 Y152.53 E.01689
G1 X170.21 Y155.802 E.14583
G1 X170.103 Y156.231 E.01394
G1 X166.939 Y153.066 E.14106
G1 X166.939 Y153.602 E.01689
G1 X170.028 Y156.691 E.13769
G1 X169.988 Y157.188 E.01572
G1 X166.939 Y154.138 E.13593
G1 X166.939 Y154.674 E.01689
G1 X170.029 Y157.765 E.13776
G1 X170.057 Y158.08 E.00997
G1 X170.132 Y158.404 E.01048
G1 X166.769 Y155.041 E.14991
;WIPE_START
G1 F7200
G1 X169.151 Y157.423 E-.8
;WIPE_END
G1 X179.345 Y155.287 F9000
G1 E.8 F1800
G1 F600
G1 X199.984 Y175.926 E.91998
G1 X199.984 Y176.462 E.01689
G1 X179.84 Y156.318 E.89792
G1 X179.865 Y156.428 E.00356
G1 X179.91 Y156.924 E.0157
G1 X199.984 Y176.998 E.8948
G1 X199.984 Y177.534 E.01689
G1 X179.922 Y157.472 E.89426
G1 X179.882 Y157.969 E.01572
G1 X199.984 Y178.07 E.89602
G1 X199.984 Y178.606 E.01689
G1 X179.791 Y158.413 E.9001
G1 X179.735 Y158.663 E.00808
G1 X179.673 Y158.832 E.00567
G1 X199.984 Y179.142 E.90534
G1 X199.984 Y179.678 E.01689
G1 X179.528 Y159.223 E.9118
G1 X179.346 Y159.577 E.01255
G1 X199.984 Y180.215 E.91994
G1 X199.984 Y180.751 E.01689
G1 X179.159 Y159.926 E.92827
G1 X178.93 Y160.233 E.01207
G1 X199.984 Y181.287 E.93848
G1 X199.984 Y181.823 E.01689
G1 X178.698 Y160.537 E.94882
G1 X178.429 Y160.805 E.01197
G1 X199.984 Y182.359 E.96079
G1 X199.984 Y182.895 E.01689
G1 X178.156 Y161.067 E.97298
G1 X177.849 Y161.297 E.01209
G1 X199.984 Y183.431 E.98664
G1 X199.984 Y183.967 E.01689
G1 X177.522 Y161.506 E1.00122
G1 X177.176 Y161.695 E.01243
G1 X199.984 Y184.503 E1.01666
G1 X199.984 Y185.039 E.01689
G1 X176.809 Y161.864 E1.03302
G1 X176.414 Y162.006 E.01323
G1 X199.984 Y185.575 E1.05061
G1 X199.984 Y186.111 E.01689
G1 X181.933 Y168.06 E.80462
G1 X181.875 Y167.806 E.00821
G1 X181.784 Y167.642 E.00591
G1 X181.701 Y167.54 E.00414
